X:148
T:Corelli's Maggot
C:Corelli c.1700
S:Colin Hume's website,  colinhume.com  - chords can also be printed below the stave.
Q:1/2=120
M:2/2
L:1/4
K:F
P:A
|: c | "F"fc fc | "C"g3 c | "F"af/g/ "Dm"ag/f/ |\
"C"g3 g | "F"af/g/ ag/f/ | "C"ga/g/ a/g/f/e/ | "Dm"fc' "G"d=b | "C"c'3 :|
P:B
|: c | "F"ff/g/ a/g/f/e/ | "Bb"dB Bd | "Gm"gg/a/ b/a/g/f/ | "C"ec cg |\
"F"c'f "C/E"ba/g/ | "Dm"ac "F/C"fA | "Bb"B/a/g/f/ "C"e3/f/ | "F"f3 :|

